X:1
T:Title
%%score { ( 1 3 ) | ( 2 4 ) }
L:1/8
Q:1/4=168
M:6/4
K:C
V:1 treble nm="Grand Piano"
V:3 treble 
V:2 bass 
V:4 bass 
V:1
 [EG]6 E2 D2 C2 | E6 G6 | z6 [Fc]6 | [Ec]12 | [EG]6 E2 D2 C2 | E6 G6 | ^F6 c6 | B12 | %8
w: Haldor~Lillenas * * *||||||||
 [Ec]6 [Ec]4 [GB]2 | A12 | [DFd]6 [Fd]4 [DFc]2 | [DB]12 | [CEc]6 [CEG]4 E2 | F2 G2 A2 B2 c2 d2 | %14
w: ||||||
 e6 d6 | [Ec]12 | [Ec]6 [EG]6 | [_EA]6 [=EG]6 |[M:5/4] [EG]2 [EA]2 [EB]2 [Ed]2 [Ec]2 | %19
w: |||||
[M:1/4] [EA]2 |[M:6/4] B6 G6 | d6 G6 | [Ee]6 [Ec]6 | [^FA]2 [FB]2 [Fc]2 [Fe]2 [Fd]2 [FA]2 | %24
w: |||||
 c4 B2 A4 G2 | [Ec]6 [EG]6 | [_EA]6 [=EG]6 |[M:5/4] [EG]2 [EA]2 [EB]2 [Ed]2 [Ec]2 |[M:1/4] [EG]2 | %29
w: |||||
[M:6/4] A12 | [^FA]2 [F^G]2 [FA]2 B2 A2 =G2 | .[Ee]6 [CEG]4 [CG]2 | %32
w: |||
[M:15/8] [C^FA]2 [B,FB]-[B,FB] [Fc]2 [=Fd]6 [Fd]3 |[M:6/4] c12 |] %34
w: ||
V:2
 [C,C]6 [C,G,C]2 [C,F,C]2 [C,E,]2 | [C,G,C]6 [C,E,C]6 | [C,G,]6 .[C,A,]6 | [C,G,]12 | %4
 [C,C]6 [C,G,C]2 [C,F,C]2 [C,E,]2 | [C,G,C]6 [C,E,C]6 | [D,A,C]6 [^F,A,D]6 | D6 z6 | %8
 [C,G,]6 [C,G,]4 [C,C]2 | [CF]6 z6 | D,6 [D,A,]4 D,2 | z6 F6 | C,6 C,4 E,2 | %13
 F,2 G,2 A,2 B,2[K:treble] C2 D2 | [G,CG]6[K:bass] [G,,B,F]6 | [C,C]12 | [C,G,]6 [C,C]6 | %17
 [C,^F,]6 [C,G,]6 |[M:5/4] [C,C]2 [C,C]2 [C,C]2 [C,C]2 [C,C]2 |[M:1/4] [C,C]2 | %20
[M:6/4][K:treble] [G,DF]6 [G,B,F]6 | [G,B,F]6 [G,B,F]6 | [C,C]6 [C,G,]6 | %23
 [D,C]2 [D,C]2 [D,C]2 [D,C]2 [D,C]2 [D,C]2 | [G,DF]6 [G,B,F]6 | [C,G,]6 [C,C]6 | [C,^F,]6 [C,G,]6 | %27
[M:5/4] [C,C]2 [C,C]2 [C,C]2 [C,C]2 [C,C]2 |[M:1/4] [C,C]2 |[M:6/4] [F,C]6 [E,^C]6 | %30
 [D,C]2 [D,B,]2 [D,C]2[K:treble] [G,DF]2 [G,CF]2 [G,B,F]2 | z2[K:treble] c2 A2[K:bass] C,4 E,2 | %32
[M:15/8] D,2 D,-D, [D,A,]2 [G,B,]6 [G,B,]3 |[M:6/4] z4 A,2 .G,6 |] %34
V:3
 x12 | x12 | [Ec]6 z4 ^G,2 | x12 | x12 | x12 | x12 | z6 .F6 | x12 | z6 G6 | x12 | G6 z6 | x12 | %13
 x12 | x12 | x12 | x12 | x12 |[M:5/4] x10 |[M:1/4] x2 |[M:6/4] x12 | x12 | x12 | x12 | x12 | x12 | %26
 x12 |[M:5/4] x10 |[M:1/4] x2 |[M:6/4] F6 G6 | x12 | x12 |[M:15/8] x15 |[M:6/4] [CE]4 F2 .E6 |] %34
V:4
 x12 | x12 | x12 | x12 | x12 | x12 | x12 | G,6- [D,G,]6 | x12 | F,6- [F,^C]6 | x12 | G,12 | x12 | %13
 x8[K:treble] x4 | x6[K:bass] x6 | x12 | x12 | x12 |[M:5/4] x10 |[M:1/4] x2 | %20
[M:6/4][K:treble] x12 | x12 | x12 | x12 | x12 | x12 | x12 |[M:5/4] x10 |[M:1/4] x2 |[M:6/4] x12 | %30
 x6[K:treble] x6 | [C,C]6[K:treble][K:bass] z6 |[M:15/8] x15 |[M:6/4] C,12 |] %34

